X:1
T:Title
L:1/8
M:2/4
K:Eb
V:1 treble nm="Grand Piano"
V:1
 z2[Q:1/4=100] BA | GA GF | E3 E | G2 G2 | AB AG | F4 | B2 Bc | B2 G2 | A2 F2 | E4- | E2 z B | %11
 c2 B2 | c2 B2 | cB AG | F3 A | B2 A2 | B2 A2 | BA GF | E2 E2 | G2 G2 | AB AG | F4 | B2 Bc | %23
 B2 G2 | A2 F2 | E4- | E2 z2 |] %27

